packages/webapp/public/images/template-logos/salesloft.svg

<svg width="62" height="62" viewBox="0 0 62 62" fill="none" xmlns="http://www.w3.org/2000/svg">
<rect width="62" height="62" rx="10" fill="white"/>
<path d="M24.4801 17.8004C24.4801 14.8671 27.2667 12.5204 30.9334 12.5204C35.6267 12.5204 38.4134 14.7204 40.0267 25.8671H41.0534L42.5201 10.6137C31.9601 6.94707 19.0534 10.9071 18.9067 21.7604C18.9067 33.6404 37.8267 33.6404 37.8267 44.4937C37.8267 47.7204 35.0401 49.7737 31.8134 49.7737C23.4534 49.7737 21.5467 42.7337 21.1067 35.4004H19.9334L17.1467 49.1871C17.1467 49.1871 23.3067 52.8537 30.0534 52.8537C38.1201 52.7071 43.4001 46.8404 43.6934 40.6804C43.6934 28.8004 24.4801 26.3071 24.4801 17.8004Z" fill="#06492E"/>
</svg>

<svg xmlns="http://www.w3.org/2000/svg" width="62" height="62" fill="none"><rect width="62" height="62" rx="31" fill="#fff"/><path d="M24.48 17.8c0-2.933 2.787-5.28 6.453-5.28 4.693 0 7.48 2.2 9.093 13.347h1.027l1.467-15.253c-10.56-3.667-23.467.293-23.613 11.147 0 11.88 18.92 11.88 18.92 22.733 0 3.227-2.787 5.28-6.013 5.28-8.36 0-10.267-7.04-10.707-14.373h-1.173l-2.787 13.787s6.16 3.667 12.907 3.667c8.067-.147 13.347-6.013 13.64-12.173 0-11.88-19.213-14.373-19.213-22.88z" fill="#06492e"/></svg>
